X:375
T: Geming yaokao laobaixing
N: C1876
O: China,Hubei
S: II, 233]
R: Shange, Pange]
M: 2/4
L: 1/16
K: C
d3cd2e2 | d8- | d4d2Ac | d2d6 |
A3cc2A2 | c2d4c2 | A2G6 |
A3cA2c2A2c2 | e2d6 |
A3cc2A2 | c2d4c2 | A2G6

@@@ Tune index: 6930
